austria/municipalities/41513.svg

<?xml version="1.0" encoding="UTF-8"?>
<!DOCTYPE svg PUBLIC "-//W3C//DTD SVG 1.1//EN" "http://www.w3.org/Graphics/SVG/1.1/DTD/svg11.dtd">
<svg xmlns="http://www.w3.org/2000/svg" version="1.1" width="166px" height="207px" style="shape-rendering:geometricPrecision; text-rendering:geometricPrecision; image-rendering:optimizeQuality; fill-rule:evenodd; clip-rule:evenodd" xmlns:xlink="http://www.w3.org/1999/xlink">
<g><path style="opacity:1" fill="#000000" d="M -0.5,-0.5 C 54.8333,-0.5 110.167,-0.5 165.5,-0.5C 165.5,43.8333 165.5,88.1667 165.5,132.5C 157.61,171.725 134.276,196.392 95.5,206.5C 86.8333,206.5 78.1667,206.5 69.5,206.5C 29.4845,196.486 6.15116,171.153 -0.5,130.5C -0.5,86.8333 -0.5,43.1667 -0.5,-0.5 Z"/></g>
<g><path style="opacity:1" fill="#cb0000" d="M 3.5,3.5 C 35.8333,3.5 68.1667,3.5 100.5,3.5C 100.5,13.8333 100.5,24.1667 100.5,34.5C 87.8333,34.5 75.1667,34.5 62.5,34.5C 62.5,46.8333 62.5,59.1667 62.5,71.5C 75.1667,71.5 87.8333,71.5 100.5,71.5C 100.5,82.1667 100.5,92.8333 100.5,103.5C 87.8333,103.5 75.1667,103.5 62.5,103.5C 62.5,115.833 62.5,128.167 62.5,140.5C 75.1667,140.5 87.8333,140.5 100.5,140.5C 100.5,151.167 100.5,161.833 100.5,172.5C 87.8333,172.5 75.1667,172.5 62.5,172.5C 62.8316,181.857 62.4983,191.19 61.5,200.5C 29.7311,189.559 10.5644,167.559 4,134.5C 3.50001,90.8346 3.33334,47.1679 3.5,3.5 Z"/></g>
<g><path style="opacity:1" fill="#fefffe" d="M 103.5,3.5 C 122.833,3.5 142.167,3.5 161.5,3.5C 161.667,47.8346 161.5,92.1679 161,136.5C 155.862,161.944 142.028,181.11 119.5,194C 102.38,202.289 84.3796,204.789 65.5,201.5C 65.5,192.5 65.5,183.5 65.5,174.5C 78.1667,174.5 90.8333,174.5 103.5,174.5C 103.5,162.5 103.5,150.5 103.5,138.5C 90.8333,138.5 78.1667,138.5 65.5,138.5C 65.5,127.5 65.5,116.5 65.5,105.5C 78.1667,105.5 90.8333,105.5 103.5,105.5C 103.5,93.5 103.5,81.5 103.5,69.5C 90.8333,69.5 78.1667,69.5 65.5,69.5C 65.5,58.8333 65.5,48.1667 65.5,37.5C 78.1667,37.5 90.8333,37.5 103.5,37.5C 103.5,26.1667 103.5,14.8333 103.5,3.5 Z"/></g>
<g><path style="opacity:1" fill="#fefffe" d="M -0.5,130.5 C 6.15116,171.153 29.4845,196.486 69.5,206.5C 46.1667,206.5 22.8333,206.5 -0.5,206.5C -0.5,181.167 -0.5,155.833 -0.5,130.5 Z"/></g>
<g><path style="opacity:1" fill="#fefffe" d="M 165.5,132.5 C 165.5,157.167 165.5,181.833 165.5,206.5C 142.167,206.5 118.833,206.5 95.5,206.5C 134.276,196.392 157.61,171.725 165.5,132.5 Z"/></g>
</svg>

<svg xmlns="http://www.w3.org/2000/svg" width="166" height="207" style="shape-rendering:geometricPrecision;text-rendering:geometricPrecision;image-rendering:optimizeQuality;fill-rule:evenodd;clip-rule:evenodd"><path style="opacity:1" d="M-.5-.5h166v133c-7.89 39.225-31.224 63.892-70 74h-26c-40.016-10.014-63.349-35.347-70-76V-.5z"/><path style="opacity:1" fill="#cb0000" d="M3.5 3.5h97v31h-38v37h38v32h-38v37h38v32h-38c.332 9.357-.002 18.69-1 28-31.769-10.941-50.936-32.941-57.5-66-.5-43.665-.667-87.332-.5-131z"/><path style="opacity:1" fill="#fefffe" d="M103.5 3.5h58c.167 44.335 0 88.668-.5 133-5.138 25.444-18.972 44.61-41.5 57.5-17.12 8.289-35.12 10.789-54 7.5v-27h38v-36h-38v-33h38v-36h-38v-32h38v-34zM-.5 130.5c6.651 40.653 29.985 65.986 70 76h-70v-76z"/><path style="opacity:1" fill="#fefffe" d="M165.5 132.5v74h-70c38.776-10.108 62.11-34.775 70-74z"/></svg>
